symbols/web/dining/materialsymbolsrounded/dining_wght500grad200_24px.svg

<svg xmlns="http://www.w3.org/2000/svg" height="24" width="24"><path d="M3.975 22.875q-1.175 0-2.012-.825-.838-.825-.838-2.025V3.975q0-1.2.838-2.025.837-.825 2.012-.825H20.05q1.2 0 2.025.825t.825 2.025v16.05q0 1.2-.825 2.025t-2.025.825Zm0-2.825h16.1V3.95h-16.1v16.1Zm4.65-.825q.425 0 .725-.287.3-.288.3-.713v-5.9q.65-.225 1.075-.788.425-.562.425-1.262v-3.95q0-.275-.175-.475-.175-.2-.45-.2t-.45.2q-.175.2-.175.475V8.45h-.65V6.325q0-.275-.175-.475-.175-.2-.45-.2t-.45.2Q8 6.05 8 6.325V8.45h-.65V6.325q0-.275-.175-.475-.175-.2-.45-.2t-.45.2q-.175.2-.175.475v3.95q0 .7.438 1.262.437.563 1.062.788v5.9q0 .425.288.713.287.287.737.287Zm6.325 0q.45 0 .738-.287.287-.288.287-.713V12.8q.825-.45 1.288-1.4.462-.95.462-2.175 0-1.525-.8-2.55T14.95 5.65q-1.2 0-2 1.025t-.8 2.55q0 1.225.475 2.175.475.95 1.325 1.4v5.425q0 .425.288.713.287.287.712.287ZM3.975 3.95v16.1-16.1Z"/></svg>

<svg xmlns="http://www.w3.org/2000/svg" height="24" width="24"><path d="M3.975 22.875Q2.8 22.875 1.963 22.05Q1.125 21.225 1.125 20.025V3.975Q1.125 2.775 1.963 1.95Q2.8 1.125 3.975 1.125H20.05Q21.25 1.125 22.075 1.95Q22.9 2.775 22.9 3.975V20.025Q22.9 21.225 22.075 22.05Q21.25 22.875 20.05 22.875ZM3.975 20.05H20.075Q20.075 20.05 20.075 20.05Q20.075 20.05 20.075 20.05V3.95Q20.075 3.95 20.075 3.95Q20.075 3.95 20.075 3.95H3.975Q3.975 3.95 3.975 3.95Q3.975 3.95 3.975 3.95V20.05Q3.975 20.05 3.975 20.05Q3.975 20.05 3.975 20.05ZM8.625 19.225Q9.05 19.225 9.35 18.938Q9.65 18.65 9.65 18.225V12.325Q10.3 12.1 10.725 11.537Q11.15 10.975 11.15 10.275V6.325Q11.15 6.05 10.975 5.85Q10.8 5.65 10.525 5.65Q10.25 5.65 10.075 5.85Q9.9 6.05 9.9 6.325V8.45H9.25V6.325Q9.25 6.05 9.075 5.85Q8.9 5.65 8.625 5.65Q8.35 5.65 8.175 5.85Q8 6.05 8 6.325V8.45H7.35V6.325Q7.35 6.05 7.175 5.85Q7 5.65 6.725 5.65Q6.45 5.65 6.275 5.85Q6.1 6.05 6.1 6.325V10.275Q6.1 10.975 6.538 11.537Q6.975 12.1 7.6 12.325V18.225Q7.6 18.65 7.888 18.938Q8.175 19.225 8.625 19.225ZM14.95 19.225Q15.4 19.225 15.688 18.938Q15.975 18.65 15.975 18.225V12.8Q16.8 12.35 17.263 11.4Q17.725 10.45 17.725 9.225Q17.725 7.7 16.925 6.675Q16.125 5.65 14.95 5.65Q13.75 5.65 12.95 6.675Q12.15 7.7 12.15 9.225Q12.15 10.45 12.625 11.4Q13.1 12.35 13.95 12.8V18.225Q13.95 18.65 14.238 18.938Q14.525 19.225 14.95 19.225ZM3.975 3.95Q3.975 3.95 3.975 3.95Q3.975 3.95 3.975 3.95V20.05Q3.975 20.05 3.975 20.05Q3.975 20.05 3.975 20.05Q3.975 20.05 3.975 20.05Q3.975 20.05 3.975 20.05V3.95Q3.975 3.95 3.975 3.95Q3.975 3.95 3.975 3.95Z"/></svg>
